X: 7775
T: Come Back!
R: jig
M: 6/8
K: Gmajor
||B3 BAG|ABd FED|EDE GFE|FDE FGA|
B3 BAG|A2d FED|EDE GcB|AGF G2A|
B3 BAG|A2d FED|EDE GFE|FDE FGA|
ABB BAG|ABd FED|EDE zcB|AGF GAB||
c2c- cAB|cBA GFE|DBB B2A|A2G GAB|
c2c- cAB|cBA ABc|BAB cBc|d3 GAB|
c2c- cAB|cBA GFE|DBB BAA|AGG GFD|
EDE FEF|GFG AGA|BAB cBc|d3 dcA||

